X: 139043
Q: "Irish Jig."
M: 6/8
L: 1/8
K: G
(d2c) !segno!|:\
EGG BAG | AFD uD2uE | =FDE uF2uG | Add cAG :|
|:\
vAde u=f2ug | (a>_ba/g/) u=f2ud |\
cAG =FGA | Add cAG |\
cAG =FGA | Add cAG :|


